client/assets/img/icon-bug.svg

<?xml version="1.0" encoding="UTF-8" standalone="no"?>
<svg width="17px" height="17px" viewBox="0 0 17 17" version="1.1" xmlns="http://www.w3.org/2000/svg" xmlns:xlink="http://www.w3.org/1999/xlink" xmlns:sketch="http://www.bohemiancoding.com/sketch/ns">
    <!-- Generator: Sketch 3.4.4 (17249) - http://www.bohemiancoding.com/sketch -->
    <title>Slice 1</title>
    <desc>Created with Sketch.</desc>
    <defs></defs>
    <g id="Page-1" stroke="none" stroke-width="1" fill="none" fill-rule="evenodd" sketch:type="MSPage">
        <g id="icon-bug" sketch:type="MSLayerGroup" fill="#000000">
            <path d="M12.75,11.25 L16.5,11.25 L16.5,10 L12.75,10 L12.75,8.75 L16.7148438,7.4609375 L16.2851562,6.2890625 L12.75,7.5 L12.75,6.25 C12.7369791,5.89843574 12.6132824,5.60546992 12.3789062,5.37109375 C12.1445301,5.13671758 11.8515643,5.0130209 11.5,5 L11.5,3.75 C11.5,3.43749844 11.4023447,3.1738292 11.2070312,2.95898438 C11.0117178,2.74413955 10.7643244,2.60416699 10.4648438,2.5390625 L11.7539062,1.25 L14,1.25 L14,0 L11.2460938,0 L8.74609375,2.5 L8.00390625,2.5 L5.50390625,0 L2.75,0 L2.75,1.25 L4.99609375,1.25 L6.28515625,2.5390625 C5.98567559,2.60416699 5.7415374,2.74413955 5.55273438,2.95898438 C5.36393135,3.1738292 5.2630209,3.43749844 5.25,3.75 L5.25,5 C4.89843574,5.0130209 4.60546992,5.13671758 4.37109375,5.37109375 C4.13671758,5.60546992 4.0130209,5.89843574 4,6.25 L4,7.5 L0.46484375,6.2890625 L0.03515625,7.4609375 L4,8.75 L4,10 L0.25,10 L0.25,11.25 L4,11.25 L4,12.5 L0.03515625,13.7890625 L0.46484375,14.9609375 L4,13.75 L4,15 C4.0130209,15.3515643 4.13671758,15.6445301 4.37109375,15.8789062 C4.60546992,16.1132824 4.89843574,16.2369791 5.25,16.25 L6.5,16.25 L7.75,15 L7.75,6.25 L9,6.25 L9,15 L10.25,16.25 L11.5,16.25 C11.8515643,16.2369791 12.1445301,16.1132824 12.3789062,15.8789062 C12.6132824,15.6445301 12.7369791,15.3515643 12.75,15 L12.75,13.75 L16.2851562,14.9609375 L16.7148438,13.7890625 L12.75,12.5 L12.75,11.25 Z M10.25,5 L6.5,5 L6.5,3.75 L10.25,3.75 L10.25,5 Z" id="" sketch:type="MSShapeGroup"></path>
        </g>
    </g>
</svg>

<svg width="17" height="17" viewBox="0 0 17 17" xmlns="http://www.w3.org/2000/svg"><title>Slice 1</title><path d="M12.75 11.25h3.75V10h-3.75V8.75l3.965-1.29-.43-1.17L12.75 7.5V6.25c-.013-.352-.137-.645-.37-.88-.235-.233-.528-.357-.88-.37V3.75c0-.313-.098-.576-.293-.79-.195-.216-.443-.356-.742-.42l1.29-1.29H14V0h-2.754l-2.5 2.5h-.742L5.504 0H2.75v1.25h2.246l1.29 1.29c-.3.064-.544.204-.733.42-.19.214-.29.477-.303.79V5c-.352.013-.645.137-.88.37-.233.235-.357.528-.37.88V7.5L.465 6.29l-.43 1.17L4 8.75V10H.25v1.25H4v1.25L.035 13.79l.43 1.17L4 13.75V15c.013.352.137.645.37.88.235.233.528.357.88.37H6.5L7.75 15V6.25H9V15l1.25 1.25h1.25c.352-.013.645-.137.88-.37.233-.235.357-.528.37-.88v-1.25l3.535 1.21.43-1.17-3.965-1.29v-1.25zM10.25 5H6.5V3.75h3.75V5z" fill="#000" fill-rule="evenodd"/></svg>
